assets/dist/images/integrations/logos/segment.svg

<svg xmlns="http://www.w3.org/2000/svg" width="40" height="40" viewBox="0 0 40 40">
  <g fill="#52BD94" fill-rule="evenodd" transform="translate(5 4)">
    <rect width="18.076" height="3.136" x="11.353" y="10.328" fill-rule="nonzero" rx=".583"/>
    <rect width="18.076" height="3.136" x=".169" y="18.164" fill-rule="nonzero" rx=".583"/>
    <path d="M2.33907892 12.4742573C2.6446348 12.5533736 2.9581333 12.3770612 3.04923676 12.0748627 4.98471812 5.99651206 11.2350494 2.39625419 17.4640432 3.77177946 17.7658254 3.83460281 18.0638216 3.64961078 18.1414054 3.35128216L18.6515719 1.44723027C18.6922322 1.29244339 18.6678758 1.12776357 18.58415.991373583 18.5004242.854983594 18.3646012.758729821 18.208173.72492973 10.3325946-1.05097587 2.41528265 3.526785.0252540541 11.238227-.0192010575 11.388877-.000690333947 11.5511129.0765579817 11.6878768.153806297 11.8246407.283193719 11.9242502.435165405 11.9639524L2.33907892 12.4742573zM27.2648649 19.1530897C26.9593479 19.0739962 26.6458982 19.2502916 26.5548108 19.5524497 24.6194085 25.6309172 18.3689522 29.2312362 12.1399005 27.8555676 11.8381719 27.7928642 11.5402898 27.9778232 11.4626768 28.2760649L10.9526486 30.1801168C10.9119884 30.3349036 10.9363448 30.4995835 11.0200706 30.6359734 11.1037963 30.7723634 11.2396193 30.8686172 11.3960476 30.9024173 19.2716259 32.6783229 27.1889379 28.100562 29.5789665 20.38912 29.6234317 20.2384699 29.6049255 20.0762293 29.5276757 19.9394628 29.4504259 19.8026963 29.3210322 19.7030882 29.1690551 19.6633946L27.2648649 19.1530897z"/>
    <circle cx="23.736" cy="5.166" r="1.719" fill-rule="nonzero"/>
    <circle cx="5.867" cy="26.462" r="1.719" fill-rule="nonzero"/>
  </g>
</svg>

<svg xmlns="http://www.w3.org/2000/svg" width="40" height="40" viewBox="0 0 40 40"><g fill="#52BD94" fill-rule="evenodd" transform="translate(5 4)"><rect width="18.076" height="3.136" x="11.353" y="10.328" fill-rule="nonzero" rx=".583"/><rect width="18.076" height="3.136" x=".169" y="18.164" fill-rule="nonzero" rx=".583"/><path d="M2.34 12.474a.587.587 0 00.71-.4 12.336 12.336 0 0114.414-8.302c.302.063.6-.122.677-.42l.51-1.905a.587.587 0 00-.443-.722C10.333-1.051 2.415 3.527.025 11.238a.58.58 0 00.41.726l1.904.51zm24.925 6.68a.588.588 0 00-.71.398 12.336 12.336 0 01-14.415 8.304.578.578 0 00-.677.42l-.51 1.904a.587.587 0 00.443.722c7.876 1.776 15.793-2.801 18.183-10.513a.58.58 0 00-.41-.726l-1.904-.51z"/><circle cx="23.736" cy="5.166" r="1.719" fill-rule="nonzero"/><circle cx="5.867" cy="26.462" r="1.719" fill-rule="nonzero"/></g></svg>
